X: 256
T: When I Crossed the Valley
B: O'Neill's 256
N: "Moderate"
N: "Collected by J.O'Neill"
Z: 1997 by John Chambers <jc@trillian.mit.edu>
M: C
L: 1/8
K:F
c>B \
| (BAGF) f3g | {fg}a2g>f (fe)(dc) | d3c A>GA>c | d2e>f f2c>B |
| (BAGF) f3g | {fg}a2g>f (fe)(dc) | d>efg agfe | ~d3e f2 ||
|| (g>f) \
| (fedc) c2a2 | (ge)(d>e) c2A>B | c3d c>dc>A | (c3d/e/ f3)e |
| d>cd>f ({e}d2c).A | cA (cd/e/) f3g | {g}agfd (cd/e/) fB | A3G F2 ||


